!!! OTL: Berkowitz347
!!! Chapter: 1
!!! Section: III
!!! Page: 84
!!! Mode: 
!!! Encoder: DJB
**kern
*staff1
*I"Piano
=1-
*clefG2
*k[b-e-a-]
*E-:
*M3/4
4r
4r
8g/L
8a-/J
=2
2b-\
4ee-\
=3
2ee-\
[4dd\
=4
4dd\]
4bn\
4cc\
=5
2f/
4g/
=6
2a-/
4dd\
=7
2dd\
[4cc\
=8
4cc\]
4an/
4b-\
=9
2e-/
8d/L
8e-/J
=10
4en/
4f/
8e-/L
8f/J
=11
4f#/
4g/
4r
=12
!!linebreak:original
4g/
4a-/
4r
=13
4an/
4b-\
4ee-\
=14
4bn\
4dd\
4cc\
=15
4a-/
4c/
4d/
=16
2f/
8f#/L
8g/J
=17
2e-/
4r
==
*-
